libs/ui/packages/crypto-icons/src/svg/TRIG.svg

<svg width="24" height="24" viewBox="0 0 24 24" fill="none">
<path d="M7.59221 4.5H16.4227C16.4227 4.5 16.6567 5.6655 17.9077 5.7435C17.9077 5.7435 22.0492 15.381 11.9685 19.5C11.9685 19.5 2.66921 16.5465 5.95121 5.8215C5.95121 5.8215 7.35821 5.7435 7.59221 4.5ZM15.9547 5.26725H8.06471L8.05421 5.43525C7.98821 5.802 7.80446 6.05775 7.53521 6.23025C7.36834 6.33546 7.18136 6.40469 6.98621 6.4335L6.84821 6.447L6.80921 6.5805C6.08246 9.063 6.05771 11.208 6.62996 13.038C7.09946 14.538 7.94921 15.768 9.06896 16.7505C9.65993 17.2687 10.3138 17.7105 11.0152 18.0653C11.2477 18.183 11.4652 18.2797 11.6595 18.3577C11.7772 18.405 11.8635 18.4357 11.9107 18.4515L11.9842 18.474L12.0555 18.444C14.835 17.256 16.5165 15.4605 17.2695 13.224C17.892 11.379 17.8365 9.41475 17.3722 7.55475C17.283 7.19793 17.1753 6.84596 17.0497 6.50025C17.0396 6.47286 17.0291 6.4456 17.0182 6.4185L16.9702 6.3L16.842 6.29175C16.4775 6.26775 16.2457 6.11925 16.1025 5.88075C16.0262 5.75251 15.9788 5.60918 15.9637 5.46075L15.9547 5.26725ZM8.42096 5.676C13.1962 5.67675 15.5835 5.6775 15.5835 5.67825C15.6165 5.8185 15.6697 5.958 15.7485 6.09075C15.9405 6.4095 16.2487 6.62475 16.6807 6.68625C16.794 7.00375 16.8917 7.32664 16.9732 7.65375C17.4202 9.44475 17.4727 11.3332 16.8795 13.0942C16.1707 15.1995 14.595 16.8945 11.9662 18.0367C11.7055 17.9385 11.4504 17.8261 11.202 17.7C10.5315 17.3612 9.90632 16.9394 9.34121 16.4445C8.27546 15.5085 7.46846 14.3415 7.02296 12.9172C6.48446 11.196 6.49871 9.1725 7.16846 6.81675C7.37688 6.76915 7.57588 6.68701 7.75721 6.57375C8.08416 6.36935 8.32137 6.0485 8.42096 5.676ZM13.941 9.8625H13.7137C13.7362 9.4065 13.635 8.4135 12.4012 8.1375C12.0427 8.05179 11.6674 8.06895 11.3182 8.187C10.8367 8.358 10.2622 8.78775 10.2405 9.8625H10.0732C9.90279 9.8625 9.7393 9.92994 9.61844 10.0501C9.49759 10.1702 9.4292 10.3333 9.42821 10.5037V13.185C9.4292 13.3554 9.49759 13.5185 9.61844 13.6387C9.7393 13.7588 9.90279 13.8263 10.0732 13.8263H13.9417C14.1121 13.8263 14.2756 13.7588 14.3965 13.6387C14.5173 13.5185 14.5857 13.3554 14.5867 13.185V10.5037C14.5857 10.3333 14.5173 10.1702 14.3965 10.0501C14.2756 9.92994 14.1121 9.8625 13.9417 9.8625H13.941ZM12.4372 12.894H11.5777L11.805 11.7637C11.6981 11.7177 11.6104 11.6361 11.5568 11.5328C11.5032 11.4295 11.4869 11.3108 11.5107 11.1969C11.5346 11.083 11.597 10.9808 11.6875 10.9077C11.7781 10.8345 11.8911 10.7949 12.0075 10.7955C12.0762 10.7659 12.1506 10.7519 12.2254 10.7546C12.3002 10.7573 12.3734 10.7765 12.4398 10.811C12.5062 10.8455 12.5642 10.8943 12.6094 10.9539C12.6546 11.0135 12.686 11.0824 12.7014 11.1557C12.7167 11.2289 12.7155 11.3047 12.698 11.3774C12.6804 11.4501 12.6469 11.5181 12.5999 11.5763C12.5528 11.6345 12.4935 11.6815 12.426 11.7139C12.3586 11.7463 12.2848 11.7634 12.21 11.7637L12.4372 12.894ZM10.7962 9.8625C10.8172 9.5115 10.9657 8.6805 11.8905 8.619C11.8905 8.619 13.11 8.55225 13.0882 9.8625H10.7962Z" fill="#30C0F2"/>
</svg>

<svg width="24" height="24" viewBox="0 0 24 24" fill="none"><path fill="#30c0f2" d="M7.592 4.5h8.83s.235 1.165 1.486 1.244c0 0 4.141 9.637-5.94 13.756 0 0-9.299-2.953-6.017-13.678 0 0 1.407-.079 1.641-1.322m8.363.767h-7.89l-.01.168c-.067.367-.25.623-.52.795a1.4 1.4 0 0 1-.549.204l-.138.013-.039.133c-.727 2.483-.751 4.628-.179 6.458.47 1.5 1.32 2.73 2.439 3.712.59.519 1.245.96 1.946 1.315a8 8 0 0 0 .896.386l.073.023.072-.03c2.779-1.188 4.46-2.983 5.214-5.22.622-1.845.567-3.81.102-5.67a11 11 0 0 0-.354-1.136L16.97 6.3l-.128-.008c-.364-.024-.596-.173-.74-.411a1 1 0 0 1-.138-.42zm-7.534.409 7.163.002q.048.212.165.413c.191.319.5.534.932.595q.17.476.292.968c.447 1.79.5 3.68-.093 5.44-.71 2.106-2.285 3.8-4.914 4.943a8 8 0 0 1-.764-.337 9 9 0 0 1-1.86-1.255c-1.067-.937-1.874-2.104-2.319-3.528-.539-1.721-.524-3.745.145-6.1q.315-.073.59-.243a1.53 1.53 0 0 0 .663-.898m5.52 4.187h-.227c.022-.457-.079-1.45-1.313-1.726a1.96 1.96 0 0 0-1.083.05c-.481.171-1.056.6-1.077 1.676h-.168a.645.645 0 0 0-.645.64v2.682a.645.645 0 0 0 .645.641h3.869a.645.645 0 0 0 .645-.641v-2.681a.645.645 0 0 0-.645-.641zm-1.504 3.031h-.86l.228-1.13a.504.504 0 0 1 .203-.968.505.505 0 1 1 .202.968zm-1.64-3.031c.02-.351.169-1.182 1.093-1.244 0 0 1.22-.067 1.198 1.244z"/></svg>
